svgs/sharp-regular/tilde.svg

<svg xmlns="http://www.w3.org/2000/svg" viewBox="0 0 448 512"><!--! Font Awesome Pro 6.6.0 by @fontawesome - https://fontawesome.com License - https://fontawesome.com/license (Commercial License) Copyright 2024 Fonticons, Inc. --><path d="M0 128l24 0 112 0 11.1 0 7.2 8.5L323.1 336l76.9 0 0-144 0-24 48 0 0 24 0 168 0 24-24 0-112 0-11.1 0-7.2-8.5L124.9 176 48 176l0 144 0 24L0 344l0-24L0 152l0-24z"/></svg>

<svg xmlns="http://www.w3.org/2000/svg" viewBox="0 0 448 512"><!--! Font Awesome Pro 6.4.0 by @fontawesome - https://fontawesome.com License - https://fontawesome.com/license (Commercial License) Copyright 2023 Fonticons, Inc. --><path d="M0 128H24 136h11.1l7.2 8.5L323.1 336H400V192 168h48v24V360v24H424 312 300.9l-7.2-8.5L124.9 176H48V320v24H0V320 152 128z"/></svg>
